gasoline.svg

<svg height="256pt" viewBox="0 0 194 256" width="194pt" xmlns="http://www.w3.org/2000/svg"><path d="m15.49 0h2.98c1.02.81 2.24 1.49 2.83 2.71 6.22 10.74 12.39 21.52 18.66 32.24-6.75 4.08-13.59 8.02-20.47 11.87-6.45-11.37-13.28-22.54-19.49-34.03v-2.45c.76-.99 1.35-2.24 2.55-2.78 4.32-2.51 8.71-4.91 12.94-7.56z" fill="#292f33"/><path d="m39.96 34.95c3.13-1.52 7.02-1.72 9.98.3 2.76 1.59 3.96 4.68 5.55 7.27 3.15 5.35 6.13 10.83 9.39 16.1l.68.14c-4.97 6.62-9.38 13.68-14.39 20.24-5.74.04-11.48-.08-17.22.05-2.12.01-4.12.81-5.86 1.97-4.15-7.19-8.39-14.33-12.43-21.58-2.33-4.4-.41-10.17 3.83-12.62 6.88-3.85 13.72-7.79 20.47-11.87z"/><path d="m71.76 49.76c1.59-2.39 4.31-4 7.22-3.94 9.03-.06 18.06.01 27.09-.03.02 3.5 0 7 0 10.5 13.72-.01 27.44-.1 41.15.05 1.17-3.09.13-7.1.48-10.54 5.48.58 12.36-1.76 16.59 2.87 7.38 10.04 14.21 20.53 21.64 30.52 3.99 1.11 6.92 4.36 8.07 8.27v160c-1.09 4.16-4.33 7.4-8.48 8.54h-153.02c-5-1.15-9.01-5.78-8.66-11.03 0-51.64-.01-103.27 0-154.91-.17-3.49 1.49-6.92 4.25-9.04 1.74-1.16 3.74-1.96 5.86-1.97 5.74-.13 11.48-.01 17.22-.05 5.01-6.56 9.42-13.62 14.39-20.24 1.95-3.08 4.12-6.01 6.2-9m34.27 16.38c2.24 4.97 3.23 10.81 5.86 15.39 9.94-.34 20.14.4 29.92-.38 1.78-5.11 3.99-10.08 5.84-15.16-13.87.11-27.77-.18-41.62.15m-51.79 49.15c-5.51 1.52-9.02 8.37-5.92 13.48 5.9 9.32 12.18 18.4 18.18 27.66.4 12.16-.02 24.4.16 36.58-.04 1.33.24 2.84-.67 3.96-5.86 8.87-11.78 17.7-17.53 26.64-2.09 2.9-2.23 7.13-.07 10.04 4.17 6.48 15.1 6.48 19.35.09 6.03-8.76 11.54-17.86 17.58-26.61l.75-.37c14.29-.26 28.58.01 42.87-.13 1.43.14 3.5-.47 4.24 1.22 5.59 8.69 11.23 17.34 17.03 25.89 4.16 5.87 13.66 6.05 18.37.79 2.4-2.81 3.14-7.06 1.19-10.31-5.81-9.71-12.53-18.87-18.4-28.52-.02-13.09-.26-26.23.12-39.31 6.03-8.95 11.92-17.99 17.83-27.02 2.02-2.87 2.09-6.82.18-9.77-3.92-6.76-15.02-6.73-19.33-.41-5.93 8.73-11.67 17.58-17.5 26.38-.38.12-1.14.37-1.52.5-14.03.02-28.06-.06-42.09.04-1.35-.21-3.42.47-4.15-1.1-4.16-6.49-8.5-12.85-12.7-19.32-2.25-3.04-3.8-6.72-6.9-9.05-3.15-2.3-7.44-2.56-11.07-1.35z" fill="#dd2e44"/><path d="m89.26 166.22c1.51-.55 3.16-.29 4.73-.38 11.33.11 22.68-.16 34 .12l.68.32c.12 6.79.12 13.58.03 20.37-13.13.24-26.29.15-39.43.02-.02-6.81-.08-13.63-.01-20.45z" fill="#dd2e44"/><path d="m54.24 115.29c3.63-1.21 7.92-.95 11.07 1.35 3.1 2.33 4.65 6.01 6.9 9.05 4.2 6.47 8.54 12.83 12.7 19.32.73 1.57 2.8.89 4.15 1.1 14.03-.1 28.06-.02 42.09-.04.38-.13 1.14-.38 1.52-.5 5.83-8.8 11.57-17.65 17.5-26.38 4.31-6.32 15.41-6.35 19.33.41 1.91 2.95 1.84 6.9-.18 9.77-5.91 9.03-11.8 18.07-17.83 27.02-.38 13.08-.14 26.22-.12 39.31 5.87 9.65 12.59 18.81 18.4 28.52 1.95 3.25 1.21 7.5-1.19 10.31-4.71 5.26-14.21 5.08-18.37-.79-5.8-8.55-11.44-17.2-17.03-25.89-.74-1.69-2.81-1.08-4.24-1.22-14.29.14-28.58-.13-42.87.13l-.75.37c-6.04 8.75-11.55 17.85-17.58 26.61-4.25 6.39-15.18 6.39-19.35-.09-2.16-2.91-2.02-7.14.07-10.04 5.75-8.94 11.67-17.77 17.53-26.64.91-1.12.63-2.63.67-3.96-.18-12.18.24-24.42-.16-36.58-6-9.26-12.28-18.34-18.18-27.66-3.1-5.11.41-11.96 5.92-13.48m35.02 50.93c-.07 6.82-.01 13.64.01 20.45 13.14.13 26.3.22 39.43-.02.09-6.79.09-13.58-.03-20.37l-.68-.32c-11.32-.28-22.67-.01-34-.12-1.57.09-3.22-.17-4.73.38z" fill="#a0041e"/></svg>

<?xml version="1.0" encoding="UTF-8" ?>
<!DOCTYPE svg PUBLIC "-//W3C//DTD SVG 1.1//EN" "http://www.w3.org/Graphics/SVG/1.1/DTD/svg11.dtd">
<svg width="194pt" height="256pt" viewBox="0 0 194 256" version="1.1" xmlns="http://www.w3.org/2000/svg">
<g id="#292f33ff">
<path fill="#292f33" opacity="1.00" d=" M 15.49 0.00 L 18.47 0.00 C 19.49 0.81 20.71 1.49 21.30 2.71 C 27.52 13.45 33.69 24.23 39.96 34.95 C 33.21 39.03 26.37 42.97 19.49 46.82 C 13.04 35.45 6.21 24.28 0.00 12.79 L 0.00 10.34 C 0.76 9.35 1.35 8.10 2.55 7.56 C 6.87 5.05 11.26 2.65 15.49 0.00 Z" />
</g>
<g id="#000000ff">
<path fill="#000000" opacity="1.00" d=" M 39.96 34.95 C 43.09 33.43 46.98 33.23 49.94 35.25 C 52.70 36.84 53.90 39.93 55.49 42.52 C 58.64 47.87 61.62 53.35 64.88 58.62 L 65.56 58.76 C 60.59 65.38 56.18 72.44 51.17 79.00 C 45.43 79.04 39.69 78.92 33.95 79.05 C 31.83 79.06 29.83 79.86 28.09 81.02 C 23.94 73.83 19.70 66.69 15.66 59.44 C 13.33 55.04 15.25 49.27 19.49 46.82 C 26.37 42.97 33.21 39.03 39.96 34.95 Z" />
</g>
<g id="#dd2e44ff">
<path fill="#dd2e44" opacity="1.00" d=" M 71.76 49.76 C 73.35 47.37 76.07 45.76 78.98 45.82 C 88.01 45.76 97.04 45.83 106.07 45.79 C 106.09 49.29 106.07 52.79 106.07 56.29 C 119.79 56.28 133.51 56.19 147.22 56.34 C 148.39 53.25 147.35 49.24 147.70 45.80 C 153.18 46.38 160.06 44.04 164.29 48.67 C 171.67 58.71 178.50 69.20 185.93 79.19 C 189.92 80.30 192.85 83.55 194.00 87.46 L 194.00 247.46 C 192.91 251.62 189.67 254.86 185.52 256.00 L 32.50 256.00 C 27.50 254.85 23.49 250.22 23.84 244.97 C 23.84 193.33 23.83 141.70 23.84 90.06 C 23.67 86.57 25.33 83.14 28.09 81.02 C 29.83 79.86 31.83 79.06 33.95 79.05 C 39.69 78.92 45.43 79.04 51.17 79.00 C 56.18 72.44 60.59 65.38 65.56 58.76 C 67.51 55.68 69.68 52.75 71.76 49.76 M 106.03 66.14 C 108.27 71.11 109.26 76.95 111.89 81.53 C 121.83 81.19 132.03 81.93 141.81 81.15 C 143.59 76.04 145.80 71.07 147.65 65.99 C 133.78 66.10 119.88 65.81 106.03 66.14 M 54.24 115.29 C 48.73 116.81 45.22 123.66 48.32 128.77 C 54.22 138.09 60.50 147.17 66.50 156.43 C 66.90 168.59 66.48 180.83 66.66 193.01 C 66.62 194.34 66.90 195.85 65.99 196.97 C 60.13 205.84 54.21 214.67 48.46 223.61 C 46.37 226.51 46.23 230.74 48.39 233.65 C 52.56 240.13 63.49 240.13 67.74 233.74 C 73.77 224.98 79.28 215.88 85.32 207.13 L 86.07 206.76 C 100.36 206.50 114.65 206.77 128.94 206.63 C 130.37 206.77 132.44 206.16 133.18 207.85 C 138.77 216.54 144.41 225.19 150.21 233.74 C 154.37 239.61 163.87 239.79 168.58 234.53 C 170.98 231.72 171.72 227.47 169.77 224.22 C 163.96 214.51 157.24 205.35 151.37 195.70 C 151.35 182.61 151.11 169.47 151.49 156.39 C 157.52 147.44 163.41 138.40 169.32 129.37 C 171.34 126.50 171.41 122.55 169.50 119.60 C 165.58 112.84 154.48 112.87 150.17 119.19 C 144.24 127.92 138.50 136.77 132.67 145.57 C 132.29 145.69 131.53 145.94 131.15 146.07 C 117.12 146.09 103.09 146.01 89.06 146.11 C 87.71 145.90 85.64 146.58 84.91 145.01 C 80.75 138.52 76.41 132.16 72.21 125.69 C 69.96 122.65 68.41 118.97 65.31 116.64 C 62.16 114.34 57.87 114.08 54.24 115.29 Z" />
<path fill="#dd2e44" opacity="1.00" d=" M 89.26 166.22 C 90.77 165.67 92.42 165.93 93.99 165.84 C 105.32 165.95 116.67 165.68 127.99 165.96 L 128.67 166.28 C 128.79 173.07 128.79 179.86 128.70 186.65 C 115.57 186.89 102.41 186.80 89.27 186.67 C 89.25 179.86 89.19 173.04 89.26 166.22 Z" />
</g>
<g id="#a0041eff">
<path fill="#a0041e" opacity="1.00" d=" M 54.24 115.29 C 57.87 114.08 62.16 114.34 65.31 116.64 C 68.41 118.97 69.96 122.65 72.21 125.69 C 76.41 132.16 80.75 138.52 84.91 145.01 C 85.64 146.58 87.71 145.90 89.06 146.11 C 103.09 146.01 117.12 146.09 131.15 146.07 C 131.53 145.94 132.29 145.69 132.67 145.57 C 138.50 136.77 144.24 127.92 150.17 119.19 C 154.48 112.87 165.58 112.84 169.50 119.60 C 171.41 122.55 171.34 126.50 169.32 129.37 C 163.41 138.40 157.52 147.44 151.49 156.39 C 151.11 169.47 151.35 182.61 151.37 195.70 C 157.24 205.35 163.96 214.51 169.77 224.22 C 171.72 227.47 170.98 231.72 168.58 234.53 C 163.87 239.79 154.37 239.61 150.21 233.74 C 144.41 225.19 138.77 216.54 133.18 207.85 C 132.44 206.16 130.37 206.77 128.94 206.63 C 114.65 206.77 100.36 206.50 86.07 206.76 L 85.32 207.13 C 79.28 215.88 73.77 224.98 67.74 233.74 C 63.49 240.13 52.56 240.13 48.39 233.65 C 46.23 230.74 46.37 226.51 48.46 223.61 C 54.21 214.67 60.13 205.84 65.99 196.97 C 66.90 195.85 66.62 194.34 66.66 193.01 C 66.48 180.83 66.90 168.59 66.50 156.43 C 60.50 147.17 54.22 138.09 48.32 128.77 C 45.22 123.66 48.73 116.81 54.24 115.29 M 89.26 166.22 C 89.19 173.04 89.25 179.86 89.27 186.67 C 102.41 186.80 115.57 186.89 128.70 186.65 C 128.79 179.86 128.79 173.07 128.67 166.28 L 127.99 165.96 C 116.67 165.68 105.32 165.95 93.99 165.84 C 92.42 165.93 90.77 165.67 89.26 166.22 Z" />
</g>
</svg>
